icons/bell-16.svg

<svg xmlns="http://www.w3.org/2000/svg" width="16" height="16" viewBox="0 0 16 16"><path d="M8 16a2 2 0 001.985-1.75c.017-.137-.097-.25-.235-.25h-3.5c-.138 0-.252.113-.235.25A2 2 0 008 16z"/><path fill-rule="evenodd" d="M8 1.5A3.5 3.5 0 004.5 5v2.947c0 .346-.102.683-.294.97l-1.703 2.556a.018.018 0 00-.003.01l.001.006c0 .002.002.004.004.006a.017.017 0 00.006.004l.007.001h10.964l.007-.001a.016.016 0 00.006-.004.016.016 0 00.004-.006l.001-.007a.017.017 0 00-.003-.01l-1.703-2.554a1.75 1.75 0 01-.294-.97V5A3.5 3.5 0 008 1.5zM3 5a5 5 0 0110 0v2.947c0 .05.015.098.042.139l1.703 2.555A1.518 1.518 0 0113.482 13H2.518a1.518 1.518 0 01-1.263-2.36l1.703-2.554A.25.25 0 003 7.947V5z"/></svg>

<svg xmlns="http://www.w3.org/2000/svg" width="16" height="16" viewBox="0 0 16 16">
  <defs/>
  <path d="M8,16 A2 2 0 0 0 9.985,14.25 C10.002,14.113 9.888,14 9.75,14 L6.25,14 C6.112,14 5.998,14.113 6.015,14.25 A2 2 0 0 0 8,16 Z"/>
  <path d="M3,5 C3,2.239 5.239,0 8,0 C10.761,0 13,2.239 13,5 L13,7.947 C13,7.997 13.015,8.045 13.042,8.086 L14.745,10.641 C15.055,11.107 15.084,11.705 14.82,12.199 C14.555,12.692 14.041,13 13.482,13 L2.518,13 C1.958,13 1.444,12.692 1.18,12.198 C0.916,11.705 0.944,11.106 1.255,10.64 L2.958,8.086 C2.985,8.045 3,7.996 3,7.947 Z M8,1.5 C6.067,1.5 4.5,3.067 4.5,5 L4.5,7.947 C4.5,8.293 4.398,8.63 4.206,8.917 L2.503,11.473 C2.501,11.476 2.5,11.479 2.5,11.483 L2.501,11.489 C2.501,11.491 2.503,11.493 2.505,11.495 C2.507,11.497 2.509,11.498 2.511,11.499 L2.518,11.5 L13.482,11.5 L13.489,11.499 C13.491,11.498 13.493,11.497 13.495,11.495 C13.497,11.493 13.498,11.491 13.499,11.489 L13.5,11.482 C13.5,11.478 13.499,11.475 13.497,11.472 L11.794,8.918 C11.602,8.631 11.5,8.293 11.5,7.948 L11.5,5 C11.5,3.067 9.933,1.5 8,1.5 Z"/>
</svg>
